X:215
T:Buck from the Mountain
M:4/4
R:Hornpipe
K:D
|AFAd BGBd |AFAd f3e|dfgf edBc|dBAF EFD2|
|AFAd BGBd |AFAd f3e|dfgf edBc|dfec d2ef|
|g2ge cABc |dAde f2ef|g2ge cABc|dBAF EFD2|
|AFAd BGBd |AFAd f3e|dfgf edBc|dfec d4||

